X:2140
T:Arrane Meshtalagh
T:(Peter O'Tavy)
C:John Cubbon, Marble Mason.
C:Traditional
O:Isle of Man
Z:Clague collection
N:Sung at Colby Bridge Tavern, customers performed the rocking cross step. See also KV#352.
B:Kiaull Vannin #140 
M:6/8
L:1/8  
K:G 
D|GGG G2G|A2D A2D|AFD AFD|DEF G3|AFD DEF|G3-G2||

